X: 35948
T: Sarah Dancing
R: reel
M: 4/4
K: Amajor
|:a2 ga ecde|a2 ga f3 g|a2 ga ecde|=gfed cBAf-|
f2 ef dAAF|ABAF (3ABc (3efg|a2 ga efed|1 cBAG Aa a/a/g:|2 cBAG A2 =c/B/A||
K:D
|:FABA dABA|GABA dABA|e/f/e cf e/f/e ce|gfed cBAG|
FABA dABA|GABA dABc|e/f/e cf e/f/e ce|1 aecA dBAG:|2 aecA d z3||

